assets/images/icons/swift-icon.svg

<svg xmlns="http://www.w3.org/2000/svg" width="80" height="80" viewBox="0 0 80 80">
  <defs>
    <linearGradient id="swift-icon-a" x1="50%" x2="50%" y1="0%" y2="100%">
      <stop offset="0%" stop-color="#F88A36"/>
      <stop offset="100%" stop-color="#FD2020"/>
    </linearGradient>
  </defs>
  <path fill="url(#swift-icon-a)" d="M60.3431577,70.7275991 C50.9196504,76.1713051 37.9625802,76.7306176 24.926762,71.1435499 C14.3719088,66.6528963 5.61412467,58.7922333 0,49.8109262 C2.69479599,52.0562529 5.83865735,53.8533221 9.20705138,55.4242431 C22.6693201,61.7341768 36.128762,61.3020726 45.6007296,55.4403966 C45.5946721,55.434339 45.5906337,55.4303007 45.5865954,55.4242431 C32.1126154,45.0941245 20.6598334,31.6201446 12.1267839,20.6176394 C10.3295129,18.8209741 8.98211487,16.5752435 7.63471687,14.5542475 C17.9646336,23.9858315 34.358548,35.8868712 40.1959938,39.2568806 C27.8466964,26.2311583 16.8421721,10.0635939 17.2904298,10.5118516 C36.8280036,30.2735542 55.0187852,41.5022074 55.0187852,41.5022074 C55.6205005,41.8414294 56.0849116,42.1241145 56.4584597,42.3765118 C56.8521995,41.3749991 57.1974791,40.3351221 57.4882408,39.2568806 C60.6321022,27.8040986 57.0399832,14.7783763 49.1793202,4 C67.3680826,15.0035147 78.1484781,35.6627424 73.6558053,52.9549894 C73.5386929,53.4214197 73.4114847,53.8817925 73.2741805,54.3340885 C73.3266792,54.3966831 73.3791778,54.4612968 73.4316765,54.5279297 C82.4129837,65.7565829 79.943528,77.6576226 78.8208646,75.4122958 C73.9485862,65.8777336 64.9289146,68.7934277 60.3433596,70.727801 L60.3431577,70.7275991 Z"/>
</svg>

<svg xmlns="http://www.w3.org/2000/svg" width="80" height="80"><defs><linearGradient id="a" x1="50%" x2="50%" y1="0%" y2="100%"><stop offset="0%" stop-color="#F88A36"/><stop offset="100%" stop-color="#FD2020"/></linearGradient></defs><path fill="url(#a)" d="M60.343 70.728c-9.423 5.443-22.38 6.003-35.416.416C14.372 66.653 5.614 58.792 0 49.81c2.695 2.245 5.839 4.042 9.207 5.613 13.462 6.31 26.922 5.878 36.394.016l-.014-.016C32.113 45.094 20.66 31.62 12.127 20.618c-1.797-1.797-3.145-4.043-4.492-6.064 10.33 9.432 26.724 21.333 32.561 24.703C27.846 26.23 16.842 10.064 17.29 10.512c19.538 19.762 37.729 30.99 37.729 30.99.602.34 1.066.622 1.44.875a29.547 29.547 0 0 0 1.03-3.12C60.631 27.804 57.04 14.778 49.178 4c18.19 11.004 28.97 31.663 24.477 48.955-.117.466-.245.927-.382 1.38.053.062.105.126.158.193 8.981 11.229 6.512 23.13 5.389 20.884-4.872-9.534-13.892-6.619-18.478-4.684z"/></svg>
